!!!!SEGMENT: pl-kozmzk--mzk-m-346--035_walczynski-franciszek--cantantibus-organis-andante.krn
!!!cenid: 18xx:2830
!!!COM: Walczyński, Franciszek
!!!COM-rismid: pe30021989
!!!CDT: ~1852-1937
!!!CNT: Polish
!!!GTL: Cantantibus organis op. 10
!!!OTL: 35. Andante
!!!PDT: 1898
!!!AGN: Secular
!!!SMS-siglum: PL-KOZmzk
!!!SMS-shelfmark: mzk/m/346
!!!SMS-shelfwork: 035 G
!!!SMS-variant:
!!!SMS-altvar:
!!!NIFC-rismid: 1001109429
!!!URL-scan: https://repozytorium.nifc.pl/islandora/object/pl-kozmzk%3A7453/datastream/PDF/view
!!!ONB-nifc:
**kern	**kern	**dynam
*part1	*part1	*part1
*staff2	*staff1	*
*I"Organo	*I"Organo	*
*clefF4	*clefG2	*
*k[b-e-a-d-]	*k[b-e-a-d-]	*
*f:	*f:	*
*M3/4	*M3/4	*
=1	=1	=1
*^	*^	*
!!LO:TX:a:B:t=Andante.
2.rEE	2.r	(8cc/L	2.r	p
.	.	8a-/	.	.
!	!	!LO:TX:a:i:t=rit.molto	!	!
.	.	8f/	.	.
.	.	8g/	.	.
.	.	8a-/	.	.
.	.	8cc/J	.	.
=2	=2	=2	=2	=2
2.rEE	2.r	2.f/	(8c</L	.
.	.	.	8A-</	.
.	.	.	8F</	.
.	.	.	8G</	.
.	.	.	8A-</	.
.	.	.	8c</J	.
=3	=3	=3	=3	=3
2.rEE	2.r	4f/	4e-</	.
.	.	2f#X/)	4dn</	.
.	.	.	4c</	.
=4	=4	=4	=4	=4
2.rEE	2.r	(>8ddn/L	4B-</)	.
.	.	8b-/	.	.
.	.	8g/	4r	.
.	.	8an/	.	.
.	.	8b-/	4r	.
.	.	8dd/J	.	.
=5	=5	=5	=5	=5
!	!	!	!LO:TX:t=P:problem:błędne wyświetlanie łuku	!
2.rEE	2.rD	[>2.g/	N(<8d-</L	.
.	.	.	8B-</	.
.	.	.	8G</	.
.	.	.	8An</	.
.	.	.	8B-</	.
.	.	.	8d-</J	.
=6	=6	=6	=6	=6
2.rEE	2.r	4g/)]	4f\	.
.	.	(4cc/	2en\N)	.
.	.	4b-/)	.	.
=7	=7	=7	=7	=7
!	!LO:TX:i:b=2:t=Ped.	!	!LO:TX:t=P:problem:drugie f u dołu systemu	!
[2.c/	(8C\L	(2.a-/	([2.f\	f
.	8AA-\	.	.	.
.	8FF\	.	.	.
.	8GG\	.	.	.
.	8AA-\	.	.	.
.	8C\J	.	.	.
=8	=8	=8	=8	=8
2.c/]	4A-\	4cc/	4f\]	.
.	4G\	4b-/	4en\	.
.	4F\	4a-/	[4f\	.
=9	=9	=9	=9	=9
!!LO:LB:g=original
!	!	!	!	!LO:DY:a
4d-X/	4BB-\	2.g/	4f\]	p
4c/	2C\	.	2en\	.
4B-/	.	.	.	.
=10	=10	=10	=10	=10
2.A-/	2.FF\)	2.f/))	2.f\	.
=11	=11	=11	=11	=11
2.rEE	2.r	(8cc/L	2.rB	f
.	.	8a-/	.	.
.	.	8f/	.	.
.	.	8g/	.	.
.	.	8a-/	.	.
.	.	8cc/J	.	.
=12	=12	=12	=12	=12
8c/L	2.rBB	[2.ff/)	2.r	f
8A-/	.	.	.	.
8F/	.	.	.	.
8G/	.	.	.	.
8A-/	.	.	.	.
8c/J	.	.	.	.
=13	=13	=13	=13	=13
[2.f/	2.rF	2.ff/_	4r	.
.	.	.	4b-\ 4dd-	pp
!	!	!LO:TX:b:i:t=rall.	!	!
.	.	.	4g\ 4b-	.
=14	=14	=14	=14	=14
!	!LO:TX:i:b=2:t=Ped.	!	!	!
2.f;/]	2.FF;>\	2.ff;/]	2.a-\ 2.cc	.
=15	=15	=15	=15	=15
!	!	!LO:TX:a:B:t=Tempo I.	!	!
2.rEE	2.r	2.rdd	(8e-\L	.
.	.	.	8c\	.
.	.	.	8A-\	.
.	.	.	8B-\	.
.	.	.	8c\	.
.	.	.	8e-\J	.
=16	=16	=16	=16	=16
2.rEE	2.r	2.rff	4a-\	.
.	.	.	4g\	.
.	.	.	4f\	.
=17	=17	=17	=17	=17
8c/L	2.r	2.rff	[2.en\	.
8G/	.	.	.	.
8En/	.	.	.	.
8F/	.	.	.	.
8G/	.	.	.	.
8B-/J	.	.	.	.
=18	=18	=18	=18	=18
!!LO:LB:g=original
(4d-/	2.r	2.rff	2.e\])	.
4c/	.	.	.	.
4B-/)	.	.	.	.
=19	=19	=19	=19	=19
!	!	!	!	!LO:DY:a
[2.c\	2.A-	(8cc/L	[2.f\	f
.	.	8a-/	.	.
.	.	8f/	.	.
.	.	8g/	.	.
.	.	8a-/	.	.
.	.	8cc/J	.	.
=20	=20	=20	=20	=20
2.c\]	2.An	4ff/	2.f\_	.
.	.	4ee-X/	.	.
.	.	4cc/	.	.
!!linebreak:original
=21	=21	=21	=21	=21
2.B-/	2.B-\	8dd-/L	2.f\_	.
.	.	8b-/	.	.
.	.	8g/	.	.
.	.	8a-/	.	.
.	.	8b-/	.	.
.	.	8dd-/J	.	.
*v	*v	*	*	*
=22	=22	=22	=22
(8c\L	2.a-/ 2.cc	2.f\_	.
8A-\	.	.	.
8F\	.	.	.
8G\	.	.	.
8A-\	.	.	.
8c\J	.	.	.
=23	=23	=23	=23
4Bn\	(4a-/) 4ddn	4f\]	f
4c\	4a-/) 4cc	[4f\	.
4C/	4g/ 4cc	8f\L]	.
.	.	8en\J	.
=24	=24	=24	=24
!LO:TX:i:b=2:t=Ped.	!	!	!
2.FF/)	2.a-/ 2.cc	2.f\	>]
=25	=25	=25	=25
*^	*	*	*
!	!	!	!	!LO:DY:b=2
2.rA	(8C\L	2.rc	2.r	pp
.	8AA-\	.	.	.
.	8FF\	.	.	.
.	8GG\	.	.	.
.	8AA-\	.	.	.
!LO:TX:b:i:t=rall.	!	!	!	!
.	8C\J	.	.	.
*	*	*v	*v	*
=26	=26	=26	=26
2.A-/	2.FF;\) 2.C	2.c;/ 2.f	.
*v	*v	*	*
==	==	==
*-	*-	*-
!!!system-decoration: {(s1,s2)}
!!!RDF**kern: > = above
!!!RDF**kern: < = below
!!!RDF**kern: N = link
!!!ENC: Kamil Watkowski
!!!END: 2021-08-09
